X:85
T: Der heimkehrende Soldat
N: Q2103B
O: Mitteleuropa, Frankreich
N: Franzoesische Fassung der Ballade. Taktart zum Taktwechsel
N: korrigiert. Anhaengsel an der ersten und zweiten Zeile; letzte
N: Zeile = Refrain auf sinnfreie Silben.
R: Ballade, Ehe, Betrug
M: 6/8
L: 1/8
K: G
D | G2GG2B | A2GABc | B3-Bz
D | G2GG2B | A2GABc | B3
ABc | d2dc2B | A3
GAB | c2AAdd | Gz
B | G2BABA | G3
ABc | d2dc2B | A3
GAB | c2AAdd | Gz
B | G2BABA | G2

@@@ Tune index: 1378
